X: 12121
T: Evening Prayer Blues
R: reel
M: 4/4
K: Gmajor
|G3D GABc|c-d3- d d3|d4 cBcd|cB G2- GGBc|
dg2g- gbgd|cBGD CB,G,G|BGcB G4-|GD ED:|
G3D GABc|dcBG DCB,G,|BG cG c-d2d-|dcBG DCB,G,|
BdcB G3d-|dcBG DCB,G,|BGcG BGcd-|dcBG DCB,G,|
BdcB G4-|GDED||

